X:1
T:Hoboecken dans
T:Hoboecken dans
T:Tielman Susato
C:Tielman Susato
%%score 1 2 3 4
L:1/8
M:3/2
K:C
V:1 treble 
V:2 treble 
V:3 treble 
V:4 treble 
V:1
 D4 | D8 A4 | A8 d4 | c4 d4 B4 | A8 A4 | G4 A4 F4 | E8 D4 | D8 A4 | A8 d4 | c4 d4 B4 | A8 G4 | %11
 F4 G4 E4 | D8 D4 | D4 D4 E4 | F8 F4 | E4 F4 D4 | C8 G4 | F4 D4 F4 | E8 D4 | D4 D4 E4 | F4 D4 G4 | %21
 F4 E4 D4 | C8 D4 | D8 ^C4 | D8 :| %25
V:2
 A,,4 | A,,8 F,4 | F,6 E,2 D,4 | F,8 G,4 | F,8 F,4 | E,4 C,4 D,4 | G,,8 D,4 | A,,6 F,,2 F,4 | %8
 F,8 D,4 | F,8 G,4 | F,4 F,4 E,4 | C,4 E,4 C,4 | A,,8 B,,4 | A,,6 B,,2 C,4 | D,6 C,2 A,,2 B,,2 | %15
 C,4 A,,4 B,,4 | C,4 F,,4 G,,4 | A,,4 B,,4 A,,4 | C,8 A,,4 | B,,4 B,,4 C,4 | A,,4 A,,4 C,4 | %21
 C,8 A,,4 | A,,8 A,,4 | _B,,4 A,,8 | A,,8 :| %25
V:3
 F,,4 | F,,6 D,,2 D,4 | C,8 B,,4 | A,,8 G,,4 | C,8 D,4 | B,,4 A,,6 B,,2 | C,8 F,,4 | %7
 F,,6 D,,2 D,4 | C,8 B,,4 | A,,8 G,,4 | C,6 D,2 B,,4 | A,,4 G,,4 A,,4 | F,,8 G,,4 | %13
 F,,4 F,,4 E,,4 | D,,6 E,,2 F,,2 G,,2 | A,,6 F,,2 G,,4 | A,,8 B,,4 | A,,4 G,,4 F,,4 | %18
 G,,6 E,,2 F,,4 | G,,6 F,,2 E,,4 | D,,4 F,,4 G,,4 | A,,6 G,,2 F,,4 | E,,8 F,,4 | G,,4 E,,8 | %24
 D,,8 :| %25
V:4
 D,4 | D,8 D,4 | F,8 G,4 | A,4 D,4 E,4 | F,8 D,4 | E,4 F,4 D,4 | C,8 D,4 | D,8 D,4 | F,8 G,4 | %9
 A,4 D,4 E,4 | F,6 D,2 E,4 | F,4 E,4 A,,4 | D,8 G,,4 | D,4 D,4 C,4 | F,6 E,2 D,4 | C,4 D,4 B,,4 | %16
 A,,8 G,,4 | D,4 G,,4 D,4 | C,8 D,4 | G,,4 G,,4 C,4 | D,4 D,4 C,4 | F,4 C,4 D,4 | A,,8 D,4 | %23
 G,,4 A,,8 | D,8 :| %25

